images_sukapura_svg/cmd/lc_deletecolumns.svg

<svg viewBox="0 0 24 24" xmlns="http://www.w3.org/2000/svg"><path d="m3 5v11h6v-11zm12 0v11h1.5 4.5v-2.75-5.5-2.75z" fill="#fff" stroke-width="1.436141"/><path d="m8 5v3h-5v1h5v.5 2.5h-5v1h5v3h1v-3-3.5-.5-4zm7 0v4 .5 3.5 3h1v-3h5v-1h-5v-2.5-.5h5v-1h-5v-3z" fill="#bababa"/><path d="m2 4v4 8c0 .554.446 1 1 1h6v-1h-6v-.5-2.5-1-3-1-3h5 1v-1zm13 0v1h6v3 1 1 2 1 1 1.5.5h-6v1h6c.554 0 1-.446 1-1v-2-1-1-2-2-4z" fill="#69696e"/><path d="m9-14h11v4h-11z" fill="#fe665f" fill-opacity=".968627" transform="rotate(90)"/><path d="m9 8v5 8h1 4 1v-9-4h-1-4zm1 1h4v3h-4zm0 4h4v3h-4zm0 4h4v3h-4z" fill="#c20618"/><g stroke-width=".555153"><path d="m8.8925781 4 .1074219.109375v-.109375zm.1074219.8613281-.4023438.4082031a1.001399 1.001399 0 0 0 .0097657 1.4160157l.3925781.3867187zm6 .3886719v1.4453125l.013672-.0136719a1.001399 1.001399 0 0 0 .005859-1.4121094z" fill="#fff"/><path d="m14.306259 5.9732662-1.446674-1.472007 1.39204-1.542089-1.003468-.955186-1.432602 1.469519-1.461641-1.469519-1.044029.99032 1.461641 1.500674-1.461641 1.476708 1.044029 1.028666 1.459946-1.542997 1.463338 1.542997z" fill="#c20618"/></g></svg>

<?xml version="1.0" encoding="UTF-8" standalone="no"?>
<svg
   xmlns:dc="http://purl.org/dc/elements/1.1/"
   xmlns:cc="http://creativecommons.org/ns#"
   xmlns:rdf="http://www.w3.org/1999/02/22-rdf-syntax-ns#"
   xmlns:svg="http://www.w3.org/2000/svg"
   xmlns="http://www.w3.org/2000/svg"
   xmlns:sodipodi="http://sodipodi.sourceforge.net/DTD/sodipodi-0.dtd"
   xmlns:inkscape="http://www.inkscape.org/namespaces/inkscape"
   viewBox="0 0 24 24"
   version="1.1"
   id="svg12"
   sodipodi:docname="lc_deletecolumns.svg"
   inkscape:export-filename="/home/rizmut/Dokumen/Rizmut/Github/libreoffice-style-sukapura/images_sukapura/cmd/lc_deletecolumns.png"
   inkscape:export-xdpi="96"
   inkscape:export-ydpi="96"
   inkscape:version="0.92.3 (unknown)">
  <metadata
     id="metadata18">
    <rdf:RDF>
      <cc:Work
         rdf:about="">
        <dc:format>image/svg+xml</dc:format>
        <dc:type
           rdf:resource="http://purl.org/dc/dcmitype/StillImage" />
        <dc:title></dc:title>
      </cc:Work>
    </rdf:RDF>
  </metadata>
  <defs
     id="defs16" />
  <sodipodi:namedview
     pagecolor="#ffffff"
     bordercolor="#666666"
     borderopacity="1"
     objecttolerance="10"
     gridtolerance="10"
     guidetolerance="10"
     inkscape:pageopacity="0"
     inkscape:pageshadow="2"
     inkscape:window-width="1366"
     inkscape:window-height="699"
     id="namedview14"
     showgrid="true"
     inkscape:zoom="5.6568545"
     inkscape:cx="13.982725"
     inkscape:cy="-3.9607004"
     inkscape:window-x="0"
     inkscape:window-y="0"
     inkscape:window-maximized="1"
     inkscape:current-layer="g1520"
     inkscape:pagecheckerboard="false"
     inkscape:snap-global="true">
    <inkscape:grid
       type="xygrid"
       id="grid828"
       spacingx="0.5"
       spacingy="0.5"
       empspacing="2" />
  </sodipodi:namedview>
  <path
     style="fill:#ffffff;fill-opacity:1;stroke-width:1.43614066"
     d="M 3,5 V 16 H 9 V 5 Z M 15,5 V 16 H 16.5 21 V 13.25 7.75 5 Z"
     id="path2"
     inkscape:connector-curvature="0" />
  <path
     style="fill:#bababa;fill-opacity:1"
     d="M 8,5 V 8 H 3 V 9 H 8 V 9.5 12 H 3 v 1 h 5 v 3 H 9 V 13 9.5 9 5 Z m 7,0 v 4 0.5 3.5 3 h 1 v -3 h 5 V 12 H 16 V 9.5 9 h 5 V 8 H 16 V 5 Z"
     id="path4"
     inkscape:connector-curvature="0" />
  <path
     style="fill:#69696e;fill-opacity:1"
     d="m 2,4 v 4 8 c 0,0.554 0.446,1 1,1 H 9 V 16 H 3 V 15.5 13 12 9 8 5 H 8 9 V 4 Z m 13,0 v 1 h 6 v 3 1 1 2 1 1 1.5 0.5 h -6 v 1 h 6 c 0.554,0 1,-0.446 1,-1 V 14 13 12 10 8 4 Z"
     id="path1653"
     inkscape:connector-curvature="0" />
  <g
     id="g1520">
    <rect
       transform="rotate(90)"
       y="-14"
       x="9"
       height="4"
       width="11"
       id="rect1686"
       style="opacity:1;fill:#fe665f;fill-opacity:0.96862745;stroke:none;stroke-width:2.27563429;stroke-linecap:round;stroke-linejoin:round;stroke-miterlimit:4;stroke-dasharray:none;stroke-opacity:1" />
    <path
       sodipodi:nodetypes="cccccccccccccccccccccccccc"
       inkscape:connector-curvature="0"
       id="rect860"
       d="m 9,8 v 5 8 h 1 4 1 V 12 8 h -1 -4 z m 1,1 h 4 v 3 h -4 z m 0,4 h 4 v 3 h -4 z m 0,4 h 4 v 3 h -4 z"
       style="opacity:1;fill:#c20618;fill-opacity:1;stroke:none;stroke-width:0.70710677;stroke-linecap:round;stroke-linejoin:round;stroke-miterlimit:4;stroke-dasharray:none;stroke-opacity:0" />
    <path
       style="fill:#ffffff;fill-opacity:1;stroke-width:0.5551526"
       d="M 8.8925781 4 L 9 4.109375 L 9 4 L 8.8925781 4 z M 9 4.8613281 L 8.5976562 5.2695312 A 1.001399 1.001399 0 0 0 8.6074219 6.6855469 L 9 7.0722656 L 9 4.8613281 z M 15 5.25 L 15 6.6953125 L 15.013672 6.6816406 A 1.001399 1.001399 0 0 0 15.019531 5.2695312 L 15 5.25 z "
       id="path6" />
    <path
       id="path878"
       d="m 14.306259,5.9732662 -1.446674,-1.472007 1.39204,-1.542089 -1.003468,-0.955186 -1.432602,1.469519 -1.461641,-1.469519 -1.044029,0.99032 1.461641,1.500674 -1.461641,1.476708 1.044029,1.028666 1.459946,-1.542997 1.463338,1.542997 z"
       style="fill:#c20618;fill-opacity:1;stroke-width:0.5551526"
       inkscape:connector-curvature="0" />
  </g>
</svg>
